X: 1620
T: Annalese Bain
R: reel
M: 4/4
K: Dmajor
FG|ABAF DFAF|EFGA BcdB|ABAF DFAF|GBAF D2
FG|ABAF DFAF|EFGA Bcde|fedB AFDF|GBAF D3||
|:A|defd cdec|defd gaba|fgaf ef g/f/e|dBAB d3:|

